X:1
T:Title
%%score { ( 1 3 ) | ( 2 4 ) }
L:1/8
M:6/8
K:Eb
V:1 treble nm="Grand Piano"
V:3 treble 
V:2 bass 
V:4 bass 
V:1
 z3 z2[Q:1/4=90] [GB] | [GB][_G=A][=GB] G2 G | GAG E2 E | D[DF][FA] [Ac][GB][FA] | %4
 [EG]3- [EG]2 [GB] | [GB][_G=A][=GB] G2 E | EF[CEG] [CDA]3 |[M:1/8] [CEA] | %8
[M:3/4] [B,EG][A,DF] ED EF |[M:3/8] E3 |[M:4/4] z2 z [Ge]- [Ge]4- |[M:2/4] [Ge]4 | %12
[M:6/4] z2 z [GB]3- [GB]4- [GB] z | z2 z [DF]3- [DF]4- [DF] z |[M:4/4] z2 z [EG]- [EG]4- | %15
[M:2/4] [EG]4 |[M:6/4] z2 z [Ge]3- [Ge]4- [Ge] z |[M:4/4] z2 z [GB]- [GB]4- |[M:2/4] [GB]4 | %19
[M:6/4] z2 z [DF]3- [DF]4- [DF] z |[M:4/4] [FA][EG] .[DF]2 z2 CC | =B, ._B,3 z4 |] %22
V:2
 z3 z2 [E,E] | [E,E][E,E][E,E] [E,B,E]2 [E,B,E] | [E,B,E][E,CE][E,B,E] [E,G,]2 [E,G,B,] | %3
 [B,,F,B,][B,,B,][B,,B,] [B,,B,][C,B,][D,B,] | [E,B,]3- [E,B,]2 [E,E] | %5
 [E,E][E,E][E,E] [E,B,E]2 [E,G,B,] | [E,G,B,][D,=B,D]C, A,,3 |[M:1/8] A,, | %8
[M:3/4] B,,B,, [B,,G,B,][B,,F,B,] [B,,G,B,][B,,A,B,] |[M:3/8] [E,G,B,]3 | %10
[M:4/4][K:treble] [B,D][B,E][B,F][K:bass][E,B,]- [E,B,]E,E,E, |[M:2/4] E, E,2 E, | %12
[M:6/4] A,A,A, E,2 E, E,E,E, E,2 E, | E,E,E, B,,2 B,, B,,B,,B,, B,,2 [B,,B,] | %14
[M:4/4] [B,,B,][C,B,][D,B,][E,B,]- [E,B,]E,E,E, |[M:2/4] E, E,2[K:treble] [B,D] | %16
[M:6/4] [B,D][B,E][B,F][K:bass] [E,B,]2 E, E,E,E, E,2 E, |[M:4/4] A,A,A,E,- E,E,E,E, | %18
[M:2/4] E, E,2 [E,B,E] |[M:6/4] .[E,B,]6 z6 |[M:4/4] z2 z G,- G,2 z2 | z8 |] %22
V:3
 x6 | x6 | x6 | x6 | x6 | x6 | x6 |[M:1/8] x |[M:3/4] x6 |[M:3/8] x3 |[M:4/4] Bc .d2 z B,B,B, | %11
[M:2/4] B, B,2 [EGe] |[M:6/4] [Ece][EBd][EAc] E2 E EEE E2 [B,EG] | %13
 [B,GB][B,FA][B,EG] B,2 B, B,B,B, B,2 [FA] |[M:4/4] [Ac][GB] .[FA]2 z B,B,B, |[M:2/4] B, B,2 B | %16
[M:6/4] Bc .d3 B, B,B,B, B,2 [EGe] |[M:4/4] [Ece][EBd][EAc]E- EEEE |[M:2/4] E E2 G | %19
[M:6/4] [GB]A[B,EG] B,2 B, B,2 B, B,2 [EG] |[M:4/4] z2 z E- E4- | E4 z4 |] %22
V:4
 x6 | x6 | x6 | x6 | x6 | x6 | x6 |[M:1/8] x |[M:3/4] x6 |[M:3/8] x3 | %10
[M:4/4][K:treble] x3[K:bass] x5 |[M:2/4] x4 |[M:6/4] x12 | x12 |[M:4/4] x8 | %15
[M:2/4] x3[K:treble] x |[M:6/4] x3[K:bass] x9 |[M:4/4] x8 |[M:2/4] x4 | %19
[M:6/4] z FE, B,,2 B,, B,,2 B,, B,,2 [B,,B,] | %20
[M:4/4] [B,,B,][B,,B,][B,,B,]E,- E,2- [E,-A,][E,-A,] | [E,-A,] [E,G,]3 z4 |] %22

